src/view/frontend/web/svg/heroicons/solid/finger-print.svg

<svg viewBox="0 0 20 20" fill="currentColor" xmlns="http://www.w3.org/2000/svg">
<path fill-rule="evenodd" clip-rule="evenodd" d="M6.62478 2.65458C7.6684 2.23213 8.80833 2 10 2C14.9706 2 19 6.02944 19 11C19 11.5523 18.5523 12 18 12C17.4477 12 17 11.5523 17 11C17 7.13401 13.866 4 10 4C9.06987 4 8.18446 4.18088 7.37522 4.50845C6.86328 4.71568 6.28029 4.46867 6.07306 3.95673C5.86584 3.4448 6.11285 2.8618 6.62478 2.65458ZM4.66173 4.95861C5.0758 5.32408 5.1152 5.95602 4.74974 6.37008C3.66007 7.60467 3 9.22404 3 11C3 11.5523 2.55228 12 2 12C1.44772 12 1 11.5523 1 11C1 8.71818 1.85048 6.63256 3.25026 5.04662C3.61573 4.63255 4.24766 4.59315 4.66173 4.95861Z" />
<path fill-rule="evenodd" clip-rule="evenodd" d="M5 11C5 8.23858 7.23857 6 10 6C12.7614 6 15 8.23858 15 11C15 11.5523 14.5523 12 14 12C13.4477 12 13 11.5523 13 11C13 9.34315 11.6569 8 10 8C8.34315 8 7 9.34315 7 11C7 12.6772 6.65535 14.2764 6.03206 15.7288C5.81426 16.2363 5.22626 16.4712 4.71874 16.2533C4.21122 16.0355 3.97636 15.4475 4.19416 14.94C4.71247 13.7323 5 12.401 5 11ZM13.9212 13.0123C14.4666 13.0989 14.8387 13.6112 14.7521 14.1567C14.6205 14.9867 14.4378 15.7998 14.2072 16.5928C14.0531 17.1231 13.4982 17.428 12.9679 17.2739C12.4375 17.1197 12.1326 16.5648 12.2868 16.0345C12.494 15.3215 12.6584 14.5901 12.7768 13.8433C12.8634 13.2979 13.3757 12.9258 13.9212 13.0123Z" />
<path fill-rule="evenodd" clip-rule="evenodd" d="M10 10C10.5523 10 11 10.4477 11 11C11 13.2363 10.5406 15.3679 9.71014 17.3036C9.49239 17.8111 8.90441 18.046 8.39687 17.8283C7.88933 17.6105 7.65441 17.0225 7.87217 16.515C8.59772 14.8239 9 12.9602 9 11C9 10.4477 9.44771 10 10 10Z" />
</svg>

<svg xmlns="http://www.w3.org/2000/svg" fill="currentColor" viewBox="0 0 20 20"><path fill-rule="evenodd" d="M6.625 2.655A9 9 0 0 1 19 11a1 1 0 1 1-2 0 7 7 0 0 0-9.625-6.492 1 1 0 1 1-.75-1.853ZM4.662 4.959A1 1 0 0 1 4.75 6.37 6.97 6.97 0 0 0 3 11a1 1 0 1 1-2 0 8.97 8.97 0 0 1 2.25-5.953 1 1 0 0 1 1.412-.088Z" clip-rule="evenodd"/><path fill-rule="evenodd" d="M5 11a5 5 0 1 1 10 0 1 1 0 1 1-2 0 3 3 0 1 0-6 0c0 1.677-.345 3.276-.968 4.729a1 1 0 1 1-1.838-.789A9.964 9.964 0 0 0 5 11Zm8.921 2.012a1 1 0 0 1 .831 1.145 19.86 19.86 0 0 1-.545 2.436 1 1 0 1 1-1.92-.558c.207-.713.371-1.445.49-2.192a1 1 0 0 1 1.144-.83Z" clip-rule="evenodd"/><path fill-rule="evenodd" d="M10 10a1 1 0 0 1 1 1c0 2.236-.46 4.368-1.29 6.304a1 1 0 0 1-1.838-.789A13.952 13.952 0 0 0 9 11a1 1 0 0 1 1-1Z" clip-rule="evenodd"/></svg>
